X:1
T:Title
%%score { 1 | 2 }
L:1/8
M:6/8
K:Eb
V:1 treble nm="Grand Piano"
V:2 bass 
V:1
 z3 z2[Q:1/4=81] [GB] | [GB]>[_G=A][=GB] [_Ac][GB]G | BDD D2 [DFA] | [DFA]>[EG][DF] [DB][DB][FA] | %4
 G3- G2 E | GGG [FB][FB][FB] | [Ee][Ee][Ee] [Ec]2 [Ec] | [EB]>[CEA][B,EG] [DA][EG][DF] | %8
[M:5/8] [B,E]-[B,E]- [B,E]3 |[M:1/8] [EB] |[M:3/4] [DB]>[DF] [DF][DF] [_D=E][=DF] | %11
 AG- G/_G/ =G2 [GB] | [Bd]>[Ac] [GB][FA] [EG][DF] | [EG][FA] [Ac] [GB]2 [GB] | %14
 [Ge]>[Ge] [_Ge][=Ge] [GB]G | Fc c c2 e | eB G[A,DF]- [A,DF]/[G,E]/[A,DF] | %17
[M:5/8] [G,B,E]-[G,B,E]- [G,B,E]3 |] %18
V:2
 z3 z2 [E,E] | [E,E]>[E,E][E,E] [E,E][E,E][E,B,E] | [F,B,D][F,A,B,][F,A,B,] [F,A,B,]2 B,, | %3
 B,,>[B,,B,][B,,B,] [B,,B,][B,,B,][D,B,] | [E,B,E]3- [E,B,E]2 [E,G,] | %5
 [E,B,E][E,B,E][E,B,E] [D,B,][D,B,][D,B,] | [C,G,][C,G,][C,G,] [A,,A,]2 [A,,A,] | %7
 [B,,G,]>B,,B,, [B,,F,][B,,B,][B,,A,] |[M:5/8] [E,G,]-[E,G,]- [E,G,]3 |[M:1/8] [E,G,] | %10
[M:3/4] [B,,F,]>[B,,B,] [B,,B,][B,,B,] [B,,B,][B,,B,] | %11
 [E,CE][E,B,E]- [E,B,E]/[E,=A,E]/ [E,B,E]2 [E,B,] | [B,,B,]>[B,,B,] [B,,B,][B,,B,] [B,,B,][B,,B,] | %13
 [E,B,][E,B,] [E,E] [E,E]2 [E,E] | [E,B,]>[E,B,] [E,=A,][E,B,] [E,E][E,B,E] | %15
 [A,CE][A,E] [A,E] [=A,E_G]2 [A,CG] | [B,EG][B,EG][K:bass] [B,E]B,,- B,,/B,,/B,, | %17
[M:5/8] E,-E,- E,3 |] %18

